X:1
T:Title
%%score 1 { 2 | 3 }
L:1/8
Q:1/4=103
M:4/4
K:Ab
V:1 treble nm="Grand Piano, Soprano"
V:2 bass nm="Choir Pad, And His Glory I Know"
V:3 bass 
V:1
 [A,C]>[B,D] [CE]2 [Ec]2 [CA]2 | E>E [DF]2 [FA]2 [FA]2 | [EG]>[DF] [CE]2 [EA]2 [Ec]2 | %3
w: By~G.~T.~Byrd * * * *|||
 [EA]2 [EB]6 | [Ec]>[Ed] [Ae]2 [Ae]2 [Ae]2 | [Ec]>[=EB] [FA]2 [DF]2 [FA]2 | [EG]>[DF] [CE]2 [Ec]4 | %7
w: ||||
 [DB]2 [CA]6 | [Ec]>[Ee] [Af]2 [Ae]4 | [Ec]2 [Ae]6 | [Ac]>[GB] [FA]2 [FA]4 | [Ec]2 [EB]6 | %12
w: |||||
 [Ec]>[Ed] [Ae]2 [Ae]2 [Ae]2 | [Ec]>[=EB] [FA]2 [DF]2 [FA]2 | [EG]>[DF] [CE]2 [Ec]4 | %15
w: |||
 [DB]2 [CA]6- | [CA]2 z2 z4 |] %17
w: ||
V:2
 E,>E, A,2 A,2 A,2 | G,>A, A,2[K:treble] D2 D2 | A,2 A,2 C2[K:bass] A,2 | A,2 G,6 | %4
 A,>B,[K:treble] C2 C2 C2 | A,>A, D2 D2 D2 | A,>A, A,2 A,4 | G,2 A,6 | A,>[K:treble]C DD C2 C2 | %9
 A,>A, CC C2 C2 | E>D CC C2 C2 | A,2 G,6 | A,>B, C2[K:treble] C2 C2 | A,>A, D2 D2 D2 | %14
 A,>A, A,2 A,4 | G,2 A,6- | A,2 z2 z4 |] %17
V:3
 A,,>A,, A,,2 A,,2 A,,2 | B,,>D, D,2 D,2 D,2 | D,2 A,,2 A,,2 z2 | C,2 E,6 | z z/ A,/ A,2 A,2 A,2 | %5
 z z/ C,/ D,2 D,2 D,2 | D,>D, E,2 E,4 | E,2 A,,6 | z z/ A,/ A,A, A,2 A,2 | z2 A,A, A,2 A,2 | %10
 A,>E, F,F, F,2 F,2 | z2 E,6 | z z/ A,/ A,2 A,2 A,2 | z z/ C,/ D,2 D,2 D,2 | D,>D, E,2 E,4 | %15
 E,2 A,,6- | A,,2 z2 z4 |] %17

